docs/icons/rss.svg

<svg xmlns="http://www.w3.org/2000/svg" width="24" height="24" viewBox="0 0 24 24"><path d="M19 0h-14c-2.761 0-5 2.239-5 5v14c0 2.761 2.239 5 5 5h14c2.762 0 5-2.239 5-5v-14c0-2.761-2.238-5-5-5zm-12.832 20c-1.197 0-2.168-.969-2.168-2.165s.971-2.165 2.168-2.165 2.167.969 2.167 2.165-.97 2.165-2.167 2.165zm5.18 0c-.041-4.029-3.314-7.298-7.348-7.339v-3.207c5.814.041 10.518 4.739 10.561 10.546h-3.213zm5.441 0c-.021-7.063-5.736-12.761-12.789-12.792v-3.208c8.83.031 15.98 7.179 16 16h-3.211z"/></svg>

<svg xmlns="http://www.w3.org/2000/svg" viewBox="0 0 24 24"><path d="M19 0H5a5 5 0 00-5 5v14a5 5 0 005 5h14a5 5 0 005-5V5a5 5 0 00-5-5zM6.168 20C4.971 20 4 19.031 4 17.835s.971-2.165 2.168-2.165a2.166 2.166 0 110 4.33zm5.18 0c-.041-4.029-3.314-7.298-7.348-7.339V9.454C9.814 9.495 14.518 14.193 14.561 20h-3.213zm5.441 0C16.768 12.937 11.053 7.239 4 7.208V4c8.83.031 15.98 7.179 16 16h-3.211z"/></svg>
